!!!COM: Bach, Johann Sebastian
!!!CDT: 1685/02/21/-1750/07/28/
!!!OTL@@DE: Ich dank dir, lieber Herre
!!!SCT: BWV 347
!!!PC#: 2
!!!AGN: chorale
**harm	**kern	**kern	**kern	**kern
*	*ICvox	*ICvox	*ICvox	*ICvox
*	*Ibass	*Itenor	*Ialto	*Isoprn
*	*I"Bass	*I"Tenor	*I"Alto	*I"Soprano
*>[A,A,B]	*>[A,A,B]	*>[A,A,B]	*>[A,A,B]	*>[A,A,B]
*>norep[A,B]	*>norep[A,B]	*>norep[A,B]	*>norep[A,B]	*>norep[A,B]
*>A	*>A	*>A	*>A	*>A
*	*	*oclefC4	*oclefC3	*oclefC1
*	*clefF4	*clefGv2	*clefG2	*clefG2
*k[f#c#g#]	*k[f#c#g#]	*k[f#c#g#]	*k[f#c#g#]	*k[f#c#g#]
*A:	*A:	*A:	*A:	*A:
*M4/4	*M4/4	*M4/4	*M4/4	*M4/4
*met(c)	*met(c)	*met(c)	*met(c)	*met (c)
*MM100	*MM100	*MM100	*MM100	*MM100
I	4A	4c#	4e	4a
=1	=1	=1	=1	=1
vi	4F#	4c#	4f#	4a
I6	4C#	4c#	4e	4a
IV	4D	4A	4f#	4a
E:V6	4D#	4F#	4f#	4b
=2	=2	=2	=2	=2
i	4E	4B	4e	4g
V7	4BB	4A	4d#	4f#
I;	4EE;	4G#X;	4B;	4e;
I	4E	4e	4g#	4b
=3	=3	=3	=3	=3
IV	4A	4e	4a	4cc#
V	4B	4d#	4f#	4b
IV6	4c#	4c#	4e	4a
ii65	4A	4c#	4e	4f#
=4	=4	=4	=4	=4
V(64)	4B	4B	4e	4g#
V7	4BB	4A	4d#	4f#
I;	4E;	4G#;	4B;	4e;
*>B	*>B	*>B	*>B	*>B
A:iii	4C#	4G#	4cc#	4ee
=5	=5	=5	=5	=5
IV6	4F#L	4A	4a	4dd
I	4A	4c#	4a	4cc#
V	4E	4e	4g#	4b
I6	8C#L	8eL	8aL	8aL
V7/IV	8AAJ	8eJ	8gJ	8aJ
=6	=6	=6	=6	=6
IV	8D	8d	8f#	8a
viio6	8D	8d	8g#	8b
I6	4C#	4e	4a	4cc#
V;	4E;	4e;	4g#;	4b;
b:viio6	4C#	4e	4a#	4cc#
=7	=7	=7	=7	=7
i	4BB	4f#	4b	4dd
viio65	4C#	4A#	4g	4cc#
i6	8DL	8BL	8f#L	8bL
iv6	8GJ	8BJ	8eJ	8bJ
V	4F#	4c#	4f#	4a#
=8	=8	=8	=8	=8
i;	2.BB;	2.d;	2.f#;	2.b;
A:iii	4C#	4G#	4e	4e
=9	=9	=9	=9	=9
vi	4F#	4A	4c#	4a
V7	8EL	8G#L	8dL	8bL
V2	8DJ	8G#J	8dJ	8bJ
I6	4C#	4E	4e	4cc#
ii	8BBL	8dL	8f#L	8ddL
viio6	8BBJ	8dJ	8g#J	8ddJ
=10	=10	=10	=10	=10
I	4AA	4c#	4a	4ee
I6	4C#	4e	4a	4c#
V;	4E;	4g#;	4e;	4b;
ii	4BB	4f#	4b	4dd
=11	=11	=11	=11	=11
vi	4F#	4f#	4a	4cc#
ii2	4A	4d	4f#	4b
V6	4G#L	4BL	4eL	4eeL
I	4A	4c#	4e	4ee
=12	=12	=12	=12	=12
I	4A	4e	4a	4cc#
IV6	4F#	4d	4a	4a
V(64)	4E	4c#	4a	4cc#
V7	4E	4d	4g#	4b
=13	=13	=13	=13	=13
I	2.AA;	2.c#;	2.e;	2.a;
==	==	==	==	==
*-	*-	*-	*-	*-
!!!YOR1: 371 vierstimmige Choralges&auml;nge von Johann Sebastian Bach, 
!!!YOR2: 4th ed. by Alfred D&ouml;rffel (Leipzig: Breitkopf und H&auml;rtel, 
!!!YOR2: c.1875). 178 pp. Plate "V.A.10".  reprint: J.S. Bach, 371 Four-Part 
!!!YOR4: Chorales (New York: Associated Music Publishers, Inc., c.1940).
!!!SMS: B&H, 4th ed, Alfred D&ouml;rffel, c.1875, plate V.A.10
!!!EED:  Craig Stuart Sapp
!!!EEV:  2009/05/22
